img/logo-uiboost-header.svg

<svg width="176" height="32" viewBox="0 0 176 32" fill="none" xmlns="http://www.w3.org/2000/svg">
<path fill-rule="evenodd" clip-rule="evenodd" d="M159.779 26.2234L164.71 31.221L175.413 20.5125L164.84 9.93469L159.619 14.7666L165.779 20.5332L159.779 26.2234ZM161.41 14.8014L167.139 20.5332L161.384 26.0291L164.721 29.4533L173.657 20.5125L164.807 11.6576L161.41 14.8014Z" fill="url(#paint0_linear_2301_606)"/>
<path fill-rule="evenodd" clip-rule="evenodd" d="M151.105 25.9972L156.314 31.2209L167.266 20.5124L156.448 9.93457L151.105 14.7664L156.982 20.5124L151.105 25.9972ZM152.918 14.8017L158.78 20.5333L152.891 26.0293L156.325 29.4734L165.49 20.5124L156.415 11.6388L152.918 14.8017Z" fill="url(#paint1_linear_2301_606)"/>
<g opacity="0.78">
<path d="M13.7084 28.6514C13.7084 29.5028 13.7935 30.6523 13.8787 31.1206H17.7102C17.6251 30.3968 17.4973 28.9494 17.4973 27.3316V9.22406H13.4955V22.9892C13.4955 26.097 11.8778 28.2256 8.64224 28.2256C5.279 28.2256 4.00183 25.7564 4.00183 22.9466V9.22406H0V23.5426C0 28.1831 2.89494 31.7592 7.66307 31.7592C10.0471 31.7592 12.6015 30.78 13.7084 28.6514Z" fill="white"/>
<path d="M25.8089 31.1206V9.22406H21.8497V31.1206H25.8089ZM20.9556 2.89494C20.9556 4.47012 22.2328 5.7473 23.808 5.7473C25.4257 5.7473 26.7029 4.47012 26.7029 2.89494C26.7029 1.27718 25.4257 0 23.808 0C22.2328 0 20.9556 1.27718 20.9556 2.89494Z" fill="white"/>
</g>
<path fill-rule="evenodd" clip-rule="evenodd" d="M40.641 29.1476V31.5317H34.3828V0.709106H40.7261V12.374C41.6202 11.0542 43.9616 9.86221 46.8566 9.86221C52.987 9.86221 56.6909 14.5452 56.6909 20.8885C56.6909 27.3595 52.5187 32 46.6011 32C43.7914 32 41.6202 30.7654 40.641 29.1476ZM45.4517 26.2101C47.9635 26.2101 50.2198 24.4646 50.2198 20.9311C50.2198 17.355 47.9635 15.6947 45.4517 15.6947C42.9399 15.6947 40.641 17.355 40.641 20.9311C40.641 24.422 42.9399 26.2101 45.4517 26.2101ZM132.684 3.90248H138.482V10.088H142.618V15.7617H138.482V23.6963C138.482 25.4453 139.42 25.9145 140.827 25.9145C141.509 25.9145 142.149 25.7866 142.532 25.7012V31.0763C142.277 31.2043 141.211 31.6735 139.164 31.6735C134.773 31.6735 132.087 29.0713 132.087 24.8481V15.7617H128.335V10.088H129.401C131.618 10.088 132.684 8.59497 132.684 6.63266V3.90248ZM65.7267 20.6675C65.7267 24.2082 68.0715 25.9572 70.5017 25.9572C72.9745 25.9572 75.2767 24.2508 75.2767 20.6675C75.2767 17.0841 72.9745 15.4204 70.5017 15.4204C68.0715 15.4204 65.7267 17.0841 65.7267 20.6675ZM59.2463 20.6675C59.2463 14.098 64.1918 9.44815 70.5017 9.44815C76.8542 9.44815 81.7571 14.098 81.7571 20.6675C81.7571 27.237 76.8542 31.9295 70.5017 31.9295C64.1918 31.9295 59.2463 27.237 59.2463 20.6675ZM90.8031 20.6675C90.8031 24.2082 93.148 25.9572 95.5781 25.9572C98.0509 25.9572 100.353 24.2508 100.353 20.6675C100.353 17.0841 98.0509 15.4204 95.5781 15.4204C93.148 15.4204 90.8031 17.0841 90.8031 20.6675ZM84.3227 20.6675C84.3227 14.098 89.2683 9.44815 95.5781 9.44815C101.931 9.44815 106.834 14.098 106.834 20.6675C106.834 27.237 101.931 31.9295 95.5781 31.9295C89.2683 31.9295 84.3227 27.237 84.3227 20.6675ZM108.831 25.2746C109.001 27.6209 111.133 31.9295 117.784 31.9295C123.454 31.9295 126.225 28.3888 126.225 24.7627C126.225 21.6486 124.094 19.0038 119.702 18.1079L116.888 17.5534C115.951 17.3827 115.226 16.8708 115.226 15.975C115.226 14.8658 116.292 14.1406 117.528 14.1406C119.489 14.1406 120.384 15.3351 120.555 16.7428L125.927 15.7617C125.714 13.2875 123.582 9.44815 117.443 9.44815C112.71 9.44815 109.3 12.6049 109.3 16.4869C109.3 19.473 111.09 22.0326 115.609 23.0137L118.04 23.5683C119.617 23.9096 120.129 24.5494 120.129 25.3173C120.129 26.2558 119.319 27.1516 117.656 27.1516C115.439 27.1516 114.416 25.7439 114.33 24.2935L108.831 25.2746Z" fill="white"/>
<defs>
<linearGradient id="paint0_linear_2301_606" x1="162.213" y1="26.0325" x2="173.11" y2="15.6363" gradientUnits="userSpaceOnUse">
<stop stop-color="#0194FF"/>
<stop offset="1" stop-color="#01EADA"/>
</linearGradient>
<linearGradient id="paint1_linear_2301_606" x1="153.249" y1="26.5277" x2="161.105" y2="14.6001" gradientUnits="userSpaceOnUse">
<stop stop-color="#721EFF"/>
<stop offset="1" stop-color="#206BFF"/>
<stop offset="1" stop-color="#206BFF"/>
</linearGradient>
</defs>
</svg>

<svg width="176" height="32" fill="none" xmlns="http://www.w3.org/2000/svg"><path fill-rule="evenodd" clip-rule="evenodd" d="m159.779 26.223 4.931 4.998 10.703-10.709L164.84 9.935l-5.221 4.832 6.16 5.766-6 5.69Zm1.631-11.422 5.729 5.732-5.755 5.496 3.337 3.424 8.936-8.94-8.85-8.855-3.397 3.143Z" fill="url(#a)"/><path fill-rule="evenodd" clip-rule="evenodd" d="m151.105 25.997 5.209 5.224 10.952-10.709-10.818-10.577-5.343 4.831 5.877 5.746-5.877 5.485Zm1.813-11.195 5.862 5.731-5.889 5.496 3.434 3.444 9.165-8.96-9.075-8.874-3.497 3.163Z" fill="url(#b)"/><g opacity=".78" fill="#fff"><path d="M13.708 28.651c0 .852.085 2.001.17 2.47h3.832a34.462 34.462 0 0 1-.213-3.79V9.225h-4.002V22.99c0 3.108-1.617 5.237-4.853 5.237-3.363 0-4.64-2.47-4.64-5.28V9.225H0v14.319c0 4.64 2.895 8.216 7.663 8.216 2.384 0 4.938-.979 6.045-3.108ZM25.809 31.12V9.225h-3.96v21.897h3.96ZM20.956 2.896a2.853 2.853 0 0 0 2.852 2.852c1.618 0 2.895-1.277 2.895-2.852A2.871 2.871 0 0 0 23.808 0c-1.575 0-2.852 1.277-2.852 2.895Z"/></g><path fill-rule="evenodd" clip-rule="evenodd" d="M40.641 29.148v2.384h-6.258V.709h6.343v11.665c.894-1.32 3.236-2.512 6.13-2.512 6.131 0 9.835 4.683 9.835 11.027C56.69 27.358 52.519 32 46.6 32c-2.81 0-4.98-1.235-5.96-2.852Zm4.81-2.938c2.513 0 4.769-1.745 4.769-5.279 0-3.576-2.256-5.236-4.768-5.236s-4.811 1.66-4.811 5.236c0 3.491 2.299 5.28 4.81 5.28Zm87.233-22.308h5.798v6.186h4.136v5.674h-4.136v7.934c0 1.75.938 2.218 2.345 2.218.682 0 1.322-.127 1.705-.213v5.375c-.255.128-1.321.598-3.368.598-4.391 0-7.077-2.603-7.077-6.826v-9.086h-3.752v-5.674h1.066c2.217 0 3.283-1.493 3.283-3.455v-2.73ZM65.727 20.667c0 3.541 2.344 5.29 4.775 5.29 2.473 0 4.775-1.706 4.775-5.29 0-3.583-2.302-5.247-4.775-5.247-2.43 0-4.775 1.664-4.775 5.248Zm-6.48 0c0-6.569 4.945-11.219 11.255-11.219 6.352 0 11.255 4.65 11.255 11.22 0 6.569-4.903 11.262-11.255 11.262-6.31 0-11.256-4.693-11.256-11.262Zm31.556 0c0 3.541 2.345 5.29 4.775 5.29 2.473 0 4.775-1.706 4.775-5.29 0-3.583-2.302-5.247-4.775-5.247-2.43 0-4.775 1.664-4.775 5.248Zm-6.48 0c0-6.569 4.945-11.219 11.255-11.219 6.353 0 11.256 4.65 11.256 11.22 0 6.569-4.903 11.262-11.256 11.262-6.31 0-11.255-4.693-11.255-11.262Zm24.508 4.608c.17 2.346 2.302 6.655 8.953 6.655 5.67 0 8.441-3.541 8.441-7.167 0-3.114-2.131-5.76-6.523-6.655l-2.814-.555c-.937-.17-1.662-.682-1.662-1.578 0-1.11 1.066-1.834 2.302-1.834 1.961 0 2.856 1.194 3.027 2.602l5.372-.981c-.213-2.475-2.345-6.314-8.484-6.314-4.733 0-8.143 3.157-8.143 7.039 0 2.986 1.79 5.546 6.309 6.527l2.431.554c1.577.342 2.089.981 2.089 1.75 0 .938-.81 1.834-2.473 1.834-2.217 0-3.24-1.408-3.326-2.858l-5.499.98Z" fill="#fff"/><defs><linearGradient id="a" x1="162.213" y1="26.032" x2="173.11" y2="15.636" gradientUnits="userSpaceOnUse"><stop stop-color="#0194FF"/><stop offset="1" stop-color="#01EADA"/></linearGradient><linearGradient id="b" x1="153.249" y1="26.528" x2="161.105" y2="14.6" gradientUnits="userSpaceOnUse"><stop stop-color="#721EFF"/><stop offset="1" stop-color="#206BFF"/><stop offset="1" stop-color="#206BFF"/></linearGradient></defs></svg>
